app/dist/common/images/saudi-azm-for-communication-and-information-technology-co.svg

<svg height="18" viewBox="0 0 18 18" width="18" xmlns="http://www.w3.org/2000/svg"><path d="m0 0h18v18h-18z" fill="#f0f3fa"/><path d="m5 6v6.73h.02c.55 0 .98-.24.98-.93v-4.34c0-.3-.3-.42-.44-.46h4.41c.55 0 1.03-.11 1.03-.63v-3.37h-.38c-.38 0-.62.12-.62 1h-1.18c-.55 0-.82.06-.82.57v1.43zm5-1h-1v1h1zm-3 10v-4.42c0-.29.34-.58.62-.58h.38v1h1v-3h3.17c.5 0 .83.42.83.93v1.07h-.46c-.22 0-.54-.13-.54-.35v-.65h-2.34c.12.04.34.16.34.46v1.54h3.6c.23 0 .4 0 .4.23v.77h-6v2.07c0 .51-.5.93-1 .93z" fill="#223570" fill-rule="evenodd"/><path d="m7 8v1h1v-1z" fill="#752f8d"/></svg>

<!-- by TradingView --><svg width="18" height="18" viewBox="0 0 18 18" xmlns="http://www.w3.org/2000/svg"><path fill="#F0F3FA" d="M0 0h18v18H0z"/><path fill-rule="evenodd" d="M5 6v6.73h.02c.55 0 .98-.24.98-.93V7.46c0-.3-.3-.42-.44-.46h4.41c.55 0 1.03-.11 1.03-.63V3h-.38c-.38 0-.62.12-.62 1H8.82c-.55 0-.82.06-.82.57V6H5Zm5-1H9v1h1V5ZM7 15v-4.42c0-.29.34-.58.62-.58H8v1h1V8h3.17c.5 0 .83.42.83.93V10h-.46c-.22 0-.54-.13-.54-.35V9H9.66c.12.04.34.16.34.46V11h3.6c.23 0 .4 0 .4.23V12H8v2.07c0 .51-.5.93-1 .93Z" fill="#223570"/><path d="M7 8v1h1V8H7Z" fill="#752F8D"/></svg>
